**kern	**kern
*staff2	*staff1
*clefF4	*clefG2
*k[]	*k[]
*M3/4	*M3/4
=-	=-
4GG	8cc#
.	4dd
4G 4B	.
.	16eeLL
.	16ddJJ
4G 4B 4d	16ccLL
.	16b
.	16a
.	16gJJ
=293	=293
4G 4B 4d#	(4dd#
4G 4c 4e	8ee)
.	8r
4G 4c# 4e	24r
.	24ggLL
.	24ffJ
.	24eeL
.	24ff
.	24ggJJ
=294	=294
4G 4c# 4e	(4ee
[4G 4d 4f	4ff)
4G] 4d# 4f#	8r
.	8ff#
*clefG2	*
=295	=295
4c 4e 4g	4.gg
4c 4e 4g	.
.	16aaLL
.	16bbJJ
4c 4f 4a	16dddLL
.	16ccc
.	16bbL
.	16aaJJ
=296	=296
4c 4e 4g	8ff#
.	4gg
4c 4e 4g	.
.	16aaLL
.	16bbJJ
4c 4f 4a	16ddd
.	16ccc
.	16bbL
.	16aaJJ)
=297	=297
4e 4g	(8ggL
.	8ccJ
4d 4g	8bL
.	8ffJ)
4c 4g	24r
.	24eeLL
.	24ffJ
.	24ggL
.	24ff
.	24eeJJ
=298	=298
4G 4B 4g	8ddL
.	8bJ
*clefF4	*
4G 4B 4d	8aL
.	8gJ
4F 4B 4d	32r
.	32g'LLL
.	32a'
.	32b'JJ
.	32cc'LL
.	32dd'
.	32ee'
.	32ff'JJJ
=299	=299
4E 4G 4c	(8ggL
.	8ccJ
4D 4G 4B	8bL
.	8ffJ)
4C 4G 4c	16.r
.	32eeL
.	8eeJ
=300	=300
*^	*
[4e	2G	[4gg
8.eL]	.	8.ggL]
16cJk	.	16eeJk
8B	4r	8dd
8r	.	8r
*v	*v	*
=301	=301
*-	*-
